icons/editor-scale-3-filled.svg

<svg width="25" height="24" viewBox="0 0 25 24" fill="none" xmlns="http://www.w3.org/2000/svg">
<g id="scale-03">
<path id="Icon" d="M18.2504 10.8004V6.00039M18.2504 6.00039L13.7738 6.00039M18.2504 6.00039L12.9171 11.3337M2.65039 13.2004H8.65039C9.97587 13.2004 11.0504 14.2749 11.0504 15.6004L11.0504 21.6004M19.7171 2.40039L4.78372 2.40039C3.60552 2.40039 2.65039 3.35552 2.65039 4.53372L2.65039 19.4671C2.65039 20.6453 3.60552 21.6004 4.78372 21.6004L19.7171 21.6004C20.8953 21.6004 21.8504 20.6453 21.8504 19.4671L21.8504 4.53372C21.8504 3.35552 20.8953 2.40039 19.7171 2.40039Z" stroke="black" stroke-width="2" stroke-linecap="round" stroke-linejoin="round"/>
</g>
</svg>

<svg xmlns="http://www.w3.org/2000/svg" width="25" height="24" fill="none" viewBox="0 0 25 24"><path stroke="currentColor" stroke-linecap="round" stroke-linejoin="round" stroke-width="2" d="M18.25 10.8V6m0 0h-4.476m4.476 0-5.333 5.334M2.65 13.2h6a2.4 2.4 0 0 1 2.4 2.4v6m8.667-19.2H4.784A2.133 2.133 0 0 0 2.65 4.534v14.933c0 1.178.956 2.133 2.134 2.133h14.933a2.133 2.133 0 0 0 2.133-2.133V4.534A2.133 2.133 0 0 0 19.717 2.4"/></svg>
